X:5968
T:Shaskeen Reel, The
O:england
R:reel
M:C|
K:G
DG~G2 ABcA|d2fd cAAc|~B3G ~A3F|GBAG FGEF|
DG~G2 ABcA|d2fd cA~A2|f2eg fdcA|1 AGFA ~G3E:|2 AGFA ~G3B||
|:dggf g2fg|abag fddc|~B3G ~A3F|GBAG FDD2|
[1 dggf g2fg|abag fdde|f2eg fdcA|AGFA G3B:|
[2 BG~G2 AF~F2|dB~B2 cA~A2|f2eg fdcA|AGFA G3E||
"version 2"
|:DG~G2 ABcA|dged cBAc|BdBG A2FA|GBAG FGEF|
DG~G2 ABcA|dged cBAe|f2df ecAF|1 GBAF ~G3E:|2 GBAF GABc||
|:dggf g2fg|~a3g fedc|~B3G A2FA|GBAG FED2|
[1 dggf g2fg|~a3g fede|~f3d ecAF|AGFA GABc:|
[2 BG~G2 AF~F2|defd cAAe|fedf ecAF|GBAF G3E||


